icon-themes/breeze_svg/cmd/lc_fontworkshapetype.fontwork-wave.svg

<svg viewBox="0 0 24 24" xmlns="http://www.w3.org/2000/svg"><path d="m8.15625 5.8515625c-1.341723-.0790375-2.72026.5699-4.15625 2.15625v1.9999995 4 2c2.466242-2.0964 5.042152-3.0529 7.9375 0 2.548597 2.5404 5.19052 3.1727 8.0625 0v-2-4-1.9999995c-2.466242 2.0963995-5.042152 3.0528995-7.9375 0-1.274299-1.2702-2.564527-2.0772125-3.90625-2.15625z" fill="#4d4d4d"/></svg>

<svg xmlns="http://www.w3.org/2000/svg" viewBox="0 0 24 24">
 <path 
     style="fill:#4d4d4d" 
     d="M 8.15625 5.8515625 C 6.814527 5.772525 5.43599 6.4214625 4 8.0078125 L 4 10.007812 L 4 14.007812 L 4 16.007812 C 6.466242 13.911412 9.042152 12.954912 11.9375 16.007812 C 14.486097 18.548212 17.12802 19.180512 20 16.007812 L 20 14.007812 L 20 10.007812 L 20 8.0078125 C 17.533758 10.104212 14.957848 11.060712 12.0625 8.0078125 C 10.788201 6.7376125 9.497973 5.9306 8.15625 5.8515625 z "
     />
 </svg>
